svg/u264E.svg

<svg viewBox="0 0 2600 2760.837" xmlns="http://www.w3.org/2000/svg"><path d="M2133 1610v295h-692v-306q129-44 212.5-159t83.5-255q0-180-128.5-308.5t-308.5-128.5-308.5 128.5-128.5 308.5q0 142 83.5 256.5t211.5 157.5v306h-692v-295h238q-65-92-100-199.5t-35-225.5q0-195 97-363.5t266-268 368-99.5q300 0 516 216t216 515q0 118-36 225.5t-101 199.5h238z m0 417v294h-1667v-294h1667z"/></svg>

<svg viewBox="0 0 2600 2760.837" xmlns="http://www.w3.org/2000/svg"><path d="M2133 1610v295h-692v-306q129-44 212.5-159t83.5-255q0-180-128.5-308.5T1300 748 991.5 876.5 863 1185q0 142 83.5 256.5T1158 1599v306H466v-295h238q-65-92-100-199.5T569 1185q0-195 97-363.5t266-268 368-99.5q300 0 516 216t216 515q0 118-36 225.5T1895 1610h238zm0 417v294H466v-294h1667z"/></svg>
